svg/table_lock.svg

<svg xmlns="http://www.w3.org/2000/svg" viewBox="0 0 24 24"><path d="M21 16v-.5a2.5 2.5 0 0 0-5 0v.5c-.55 0-1 .45-1 1v4c0 .55.45 1 1 1h5c.55 0 1-.45 1-1v-4c0-.55-.45-1-1-1m-1 0h-3v-.5c0-.83.67-1.5 1.5-1.5s1.5.67 1.5 1.5zm-7 2h-1v-4h2.26c.28-.79.78-1.5 1.43-2H12V8h6v3.05c.17-.02.33-.05.5-.05.53 0 1.03.1 1.5.26V6c0-1.11-.89-2-2-2H4a2 2 0 0 0-2 2v12a2 2 0 0 0 2 2h9zm-3 0H4v-4h6zm0-6H4V8h6z"/></svg>

<?xml version="1.0" encoding="UTF-8"?><!DOCTYPE svg PUBLIC "-//W3C//DTD SVG 1.1//EN" "http://www.w3.org/Graphics/SVG/1.1/DTD/svg11.dtd"><svg xmlns="http://www.w3.org/2000/svg" xmlns:xlink="http://www.w3.org/1999/xlink" version="1.1" id="mdi-table-lock" width="24" height="24" viewBox="0 0 24 24"><path d="M21 16V15.5C21 14.12 19.88 13 18.5 13S16 14.12 16 15.5V16C15.45 16 15 16.45 15 17V21C15 21.55 15.45 22 16 22H21C21.55 22 22 21.55 22 21V17C22 16.45 21.55 16 21 16M20 16H17V15.5C17 14.67 17.67 14 18.5 14S20 14.67 20 15.5V16M13 18H12V14H14.26C14.54 13.21 15.04 12.5 15.69 12H12V8H18V11.05C18.17 11.03 18.33 11 18.5 11C19.03 11 19.53 11.1 20 11.26V6C20 4.89 19.11 4 18 4H4C2.9 4 2 4.89 2 6V18C2 19.11 2.9 20 4 20H13V18M10 18H4V14H10V18M10 12H4V8H10V12Z" /></svg>
